X: 41833
T: Vincenzo's Flute
R: reel
M: 4/4
K: Gmajor
|:Bc|d3e dBGA|B2AB cBAG|E2AE BEAE|AcBA GAGE|
DGBe dBAG|B2AB cBAG|E2AE BEAE|AGFA G2:|
|:Bc|d2Bd gdBd|e2ce afge|d2Bd cBAG|EGAB c2Bc|
d2Bd gdBd|e2ce afge|d2Bd cBAG|AGFA G2:|

